www/assets/icons/grid_off.svg

<svg width="24" height="24" viewBox="0 0 24 24" xmlns="http://www.w3.org/2000/svg" fill='currentColor'><g clip-path="url(#clip0_1616_4009)"><path d="M8.63501 3.36501V4.81501L10.635 6.81501V3.36501H14.635V7.36501H11.185L13.185 9.36501H14.635V10.815L16.635 12.815V9.36501H20.635V13.365H17.185L19.185 15.365H20.635V16.815L22.635 18.815V3.36501C22.635 2.26501 21.735 1.36501 20.635 1.36501H5.18501L7.18501 3.36501H8.63501ZM16.635 3.36501H20.635V7.36501H16.635V3.36501ZM1.90501 0.63501L0.63501 1.91501L2.63501 3.91501V19.365C2.63501 20.465 3.53501 21.365 4.63501 21.365H20.095L22.095 23.365L23.365 22.095L1.90501 0.63501ZM10.635 11.915L12.085 13.365H10.635V11.915ZM4.63501 5.91501L6.08501 7.36501H4.63501V5.91501ZM8.63501 19.365H4.63501V15.365H8.63501V19.365ZM8.63501 13.365H4.63501V9.36501H8.08501L8.63501 9.91501V13.365ZM14.635 19.365H10.635V15.365H14.085L14.635 15.905V19.365ZM16.635 19.365V17.905L18.095 19.365H16.635Z"/></g><defs><clipPath id="clip0_1616_4009"><rect width="24" height="24"/></clipPath></defs></svg>

<svg xmlns="http://www.w3.org/2000/svg" width="24" height="24" viewBox="0 0 24 24" fill='currentColor'><g clip-path="url(#a)"><path d="M8.635 3.365v1.45l2 2v-3.45h4v4h-3.45l2 2h1.45v1.45l2 2v-3.45h4v4h-3.45l2 2h1.45v1.45l2 2V3.365c0-1.1-.9-2-2-2H5.185l2 2zm8 0h4v4h-4zM1.905.635l-1.27 1.28 2 2v15.45c0 1.1.9 2 2 2h15.46l2 2 1.27-1.27zm8.73 11.28 1.45 1.45h-1.45zm-6-6 1.45 1.45h-1.45zm4 13.45h-4v-4h4zm0-6h-4v-4h3.45l.55.55zm6 6h-4v-4h3.45l.55.54zm2 0v-1.46l1.46 1.46z"/></g><defs><clipPath id="a"><path d="M0 0h24v24H0z"/></clipPath></defs></svg>
